X:150
T:Anglais efter Johan Magnus Dahl (SvL Småland 150)
R:Anglais
O:Skatelöv, Småland
S:Johan Magnus Dahl
B:Svenska Låtar Småland
Z:Till abc Jonas Brunskog
M:2/4
L:1/16
K:D
ecec e2e2|fdfd f2f2|ecec e2e2|(g2f2) d4:|
|:{fg}(f2ef) g2g2|b3(a g2)f2|{fg}(f2ef) g2e2|a2c2 d4:|

